packages/dnb-ui-lib/assets/icons/shopping_cart.svg

<svg width="16" height="16" viewBox="0 0 16 16" fill="none" xmlns="http://www.w3.org/2000/svg">
<path d="M10.5834 14C10.4351 14 10.2901 14.044 10.1667 14.1264C10.0434 14.2088 9.94726 14.3259 9.89049 14.463C9.83373 14.6 9.81888 14.7508 9.84782 14.8963C9.87675 15.0418 9.94818 15.1754 10.0531 15.2803C10.158 15.3852 10.2916 15.4566 10.4371 15.4856C10.5826 15.5145 10.7334 15.4997 10.8704 15.4429C11.0075 15.3861 11.1246 15.29 11.207 15.1667C11.2894 15.0433 11.3334 14.8983 11.3334 14.75C11.3334 14.5511 11.2544 14.3603 11.1137 14.2197C10.9731 14.079 10.7823 14 10.5834 14Z" fill="black"/>
<path d="M5.91675 14C5.76841 14 5.62341 14.044 5.50007 14.1264C5.37673 14.2088 5.2806 14.3259 5.22384 14.463C5.16707 14.6 5.15222 14.7508 5.18116 14.8963C5.2101 15.0418 5.28153 15.1754 5.38642 15.2803C5.49131 15.3852 5.62494 15.4566 5.77043 15.4856C5.91592 15.5145 6.06672 15.4997 6.20376 15.4429C6.3408 15.3861 6.45794 15.29 6.54035 15.1667C6.62276 15.0433 6.66675 14.8983 6.66675 14.75C6.66675 14.5511 6.58773 14.3603 6.44708 14.2197C6.30643 14.079 6.11566 14 5.91675 14Z" fill="black"/>
<path d="M12 12.762H5.386C4.8299 12.7621 4.25931 12.4926 4.1593 11.9033L3.87225 9.99801M1 1H1.656C1.89212 0.99995 2.12065 1.08346 2.30111 1.23573C2.48157 1.38801 2.60233 1.59923 2.642 1.832L2.96792 3.99534M4.49667 3.99801L6.49667 1.29279C6.68419 1.10532 6.9385 1 7.20366 1C7.46883 1 7.72314 1.10532 7.91067 1.29279L8.59098 2.21299M9.91067 3.99801L8.59098 2.21299M12.5 3.99802L12.2407 2.178C12.166 1.92361 11.9934 1.70929 11.7607 1.58215C11.528 1.45501 11.2544 1.42546 11 1.5L8.59098 2.21299M3.87225 9.99801H12.0787C12.5246 9.99796 12.9578 9.84887 13.3093 9.57443C13.6608 9.3 13.9105 8.91596 14.0187 8.48334L14.9853 4.61667C15.0038 4.54293 15.0052 4.46596 14.9894 4.3916C14.9736 4.31724 14.9411 4.24746 14.8943 4.18755C14.8475 4.12765 14.7877 4.0792 14.7194 4.04589C14.651 4.01259 14.576 3.9953 14.5 3.99534H2.96792M3.87225 9.99801L2.96792 3.99534" stroke="black" stroke-width="1.5" stroke-linecap="round" stroke-linejoin="round"/>
</svg>

<svg width="16" height="16" viewBox="0 0 16 16" fill="none" xmlns="http://www.w3.org/2000/svg"><path d="M10.583 14a.75.75 0 100 1.5.75.75 0 000-1.5zM5.917 14a.75.75 0 100 1.5.75.75 0 000-1.5z" fill="#000"/><path d="M12 12.762H5.386c-.556 0-1.127-.27-1.227-.859l-.287-1.905M1 1h.656a1 1 0 01.986.832l.326 2.163m1.529.003l2-2.705a1 1 0 011.414 0l.68.92m1.32 1.785L8.59 2.213M12.5 3.998l-.26-1.82A1 1 0 0011 1.5l-2.409.713M3.872 9.998h8.207a2 2 0 001.94-1.515l.966-3.866a.499.499 0 00-.485-.622H2.968m.904 6.003l-.904-6.003" stroke="#000" stroke-width="1.5" stroke-linecap="round" stroke-linejoin="round"/></svg>
